X: 1
T: We'll Get Ribbons
T: Gheibh sinn riobainnean
C: trad. Scotland
R: jig
S: Fiddle Hell Online 2020-11-06
Z: 2020 John Chambers <jc:trillian.mit.edu>
M: 6/8
L: 1/8
K: Amix
|:\
e3 ede  | g2g a2a | e3  ede | g2e edB |\
e3 ede  | g2g a3  | aaa g2e | d3  dBd :|
|:\
e2A AAA | g2f e2d | e2A AAA | g2e d3  |\
e2A AAA | g3  a3  | aaa g2e | d3  dBd :|
